lib/flags/m/FK.svg

<svg xmlns="http://www.w3.org/2000/svg" fill="none" viewBox="0 0 20 15"><mask id="FK_svg__a" width="20" height="15" x="0" y="0" mask-type="alpha" maskUnits="userSpaceOnUse"><path fill="#fff" d="M0 0H20V15H0z"/></mask><g mask="url(#FK_svg__a)"><path fill="#2E42A5" fill-rule="evenodd" d="M0 0V15H20V0H0Z" clip-rule="evenodd"/><mask id="FK_svg__b" width="20" height="15" x="0" y="0" mask-type="alpha" maskUnits="userSpaceOnUse"><path fill="#fff" fill-rule="evenodd" d="M0 0V15H20V0H0Z" clip-rule="evenodd"/></mask><g mask="url(#FK_svg__b)"><path fill="#2E42A5" d="M0 0H11V9H0z"/><mask id="FK_svg__c" width="11" height="9" x="0" y="0" mask-type="alpha" maskUnits="userSpaceOnUse"><path fill="#fff" d="M0 0H11V9H0z"/></mask><g mask="url(#FK_svg__c)"><path fill="#F7FCFF" d="M-1.25269 8.12482L1.22291 9.21057L11.3062 1.1804L12.612 -0.43306L9.96468 -0.795949L5.85197 2.66448L2.54165 4.996L-1.25269 8.12482Z"/><path fill="#F50100" d="M-0.913757 8.88555L0.347444 9.51562L12.1431 -0.582947H10.3722L-0.913757 8.88555Z"/><path fill="#F7FCFF" d="M12.5026 8.12493L10.3055 9.52063L-0.0562172 1.1805L-1.36204 -0.432954L1.28526 -0.795844L5.39797 2.66459L8.70828 4.99611L12.5026 8.12493Z"/><path fill="#F50100" d="M12.4182 8.67082L11.157 9.3009L6.13425 4.97718L4.64512 4.4941L-1.48769 -0.427482H0.283185L6.41255 4.37728L8.04064 4.95655L12.4182 8.67082Z"/><mask id="FK_svg__d" width="13" height="11" x="-1" y="-1" fill="#000" maskUnits="userSpaceOnUse"><path fill="#fff" d="M-1-1H12V10H-1z"/><path fill-rule="evenodd" d="M6 0H5V4H0V5H5V9H6V5H11V4H6V0Z" clip-rule="evenodd"/></mask><path fill="#F50100" fill-rule="evenodd" d="M6 0H5V4H0V5H5V9H6V5H11V4H6V0Z" clip-rule="evenodd"/><path fill="#F7FCFF" d="M5 0V-0.9375H4.0625V0H5ZM6 0H6.9375V-0.9375H6V0ZM5 4V4.9375H5.9375V4H5ZM0 4V3.0625H-0.9375V4H0ZM0 5H-0.9375V5.9375H0V5ZM5 5H5.9375V4.0625H5V5ZM5 9H4.0625V9.9375H5V9ZM6 9V9.9375H6.9375V9H6ZM6 5V4.0625H5.0625V5H6ZM11 5V5.9375H11.9375V5H11ZM11 4H11.9375V3.0625H11V4ZM6 4H5.0625V4.9375H6V4ZM5 0.9375H6V-0.9375H5V0.9375ZM5.9375 4V0H4.0625V4H5.9375ZM0 4.9375H5V3.0625H0V4.9375ZM0.9375 5V4H-0.9375V5H0.9375ZM5 4.0625H0V5.9375H5V4.0625ZM5.9375 9V5H4.0625V9H5.9375ZM6 8.0625H5V9.9375H6V8.0625ZM5.0625 5V9H6.9375V5H5.0625ZM11 4.0625H6V5.9375H11V4.0625ZM10.0625 4V5H11.9375V4H10.0625ZM6 4.9375H11V3.0625H6V4.9375ZM5.0625 0V4H6.9375V0H5.0625Z" mask="url(#FK_svg__d)"/></g><path fill="#6DC2FF" stroke="#F7FCFF" stroke-width=".5" d="M16.2189 12.2274C15.5907 12.2274 15.1668 12.0794 14.8699 11.8327C14.5707 11.5841 14.3684 11.209 14.2371 10.6921C14.1054 10.1737 14.0506 9.5353 14.0301 8.7856C14.0157 8.259 14.0184 7.68828 14.0212 7.07444C14.0221 6.89349 14.0229 6.7088 14.0234 6.52039H18.476C18.555 7.99475 18.5766 9.4109 18.2921 10.4731C18.1434 11.0281 17.9168 11.4632 17.5918 11.7592C17.2719 12.0504 16.8343 12.2274 16.2189 12.2274Z"/><mask id="FK_svg__e" width="6" height="7" x="13" y="6" mask-type="alpha" maskUnits="userSpaceOnUse"><path fill="#fff" stroke="#fff" stroke-width=".5" d="M16.2189 12.2274C15.5907 12.2274 15.1668 12.0794 14.8699 11.8327C14.5707 11.5841 14.3684 11.209 14.2371 10.6921C14.1054 10.1737 14.0506 9.5353 14.0301 8.7856C14.0157 8.259 14.0184 7.68828 14.0212 7.07444C14.0221 6.89349 14.0229 6.7088 14.0234 6.52039H18.476C18.555 7.99475 18.5766 9.4109 18.2921 10.4731C18.1434 11.0281 17.9168 11.4632 17.5918 11.7592C17.2719 12.0504 16.8343 12.2274 16.2189 12.2274Z"/></mask><g mask="url(#FK_svg__e)"><path fill="#E1E5E8" fill-rule="evenodd" d="M15.3261 8.49183C15.3261 8.49183 15.0795 8.3094 14.9737 8.01383C14.8679 7.71826 14.6586 6.93142 14.6586 6.8631C14.6586 6.79477 14.3801 6.8631 14.3801 6.8631C14.3801 6.8631 14.384 6.53036 14.4891 6.53036C14.5942 6.53036 14.5981 6.22184 14.8531 6.29953C15.1081 6.37723 15.3086 6.66215 15.5685 6.66215C15.8284 6.66215 16.9146 6.74501 17.0892 6.74501C17.2638 6.74501 17.7241 7.11355 17.7241 7.38941C17.7241 7.66527 17.5986 8.07627 17.4998 8.07627C17.4011 8.07627 17.2769 8.31541 17.0892 8.23648C16.9015 8.15755 16.4535 7.995 16.0521 8.07627C15.6507 8.15755 15.5685 8.10646 15.5685 8.23648C15.5685 8.3665 15.3261 8.49183 15.3261 8.49183Z" clip-rule="evenodd"/><path fill="#49801E" fill-rule="evenodd" d="M14.7499 8.29919H17.9722L17.4172 9.01641H15.1405L14.7499 8.29919Z" clip-rule="evenodd"/><path stroke="#fff" stroke-width=".667" d="M14.708 11.4347C14.708 11.4347 15.2649 11.6339 15.4976 11.6097 15.7554 11.5829 15.9836 11.2891 16.1558 11.2891 16.3278 11.2891 16.6588 11.583 16.916 11.6097 17.149 11.6339 17.6037 11.4347 17.6037 11.4347M14.0964 10.5852C14.289 10.4221 14.708 10.4102 14.708 10.4102 14.708 10.4102 15.2649 10.6094 15.4977 10.5852 15.7554 10.5583 15.9836 10.2645 16.1558 10.2645 16.3278 10.2645 16.6589 10.5584 16.916 10.5852 17.1491 10.6094 17.6037 10.4102 17.6037 10.4102 17.6037 10.4102 17.8577 10.1245 18.1768 10.4262"/><path fill="#fff" d="M14.0379 9.70611L13.6165 9.18958C13.7817 9.05474 14.0592 8.92184 14.4643 8.77496L14.6609 8.76548C15.0808 8.8734 15.3616 8.92017 15.4644 8.90987C15.4983 8.90646 15.555 8.87891 15.6586 8.81022C15.9527 8.61514 15.9812 8.59924 16.1558 8.59924C16.3154 8.59924 16.3484 8.61455 16.6819 8.7947C16.7439 8.82789 16.7671 8.83996 16.8006 8.85605C16.871 8.88986 16.9215 8.90709 16.9492 8.90986C17.0293 8.91789 17.1906 8.88048 17.4162 8.78967C17.7097 8.52293 18.0815 8.55056 18.4013 8.84192C18.6146 9.03628 18.7858 9.19329 18.9151 9.31308L18.462 9.80207C18.3343 9.68374 18.1643 9.52792 17.9523 9.33473C17.868 9.25791 17.8861 9.2584 17.8486 9.299L17.7333 9.38001C17.3832 9.52785 17.1067 9.59563 16.8828 9.57321C16.7626 9.56118 16.6463 9.52147 16.5121 9.45705C16.4672 9.43548 16.4351 9.41882 16.3651 9.38129C16.2041 9.29434 16.143 9.26591 16.1558 9.26591C16.1839 9.26591 16.145 9.28758 16.0271 9.36578C15.8374 9.49158 15.7055 9.55571 15.5309 9.57321C15.3379 9.59256 15.0368 9.54601 14.5966 9.43684C14.3106 9.54499 14.1206 9.63866 14.0379 9.70611Z"/></g><path stroke="#B85F3C" stroke-width=".625" d="M14.3521 11.4961C14.3521 11.4961 14.967 12.0851 14.5957 12.4842 14.2243 12.8834 13.8839 12.6515 13.8839 12.6515M18.1562 11.4961C18.1562 11.4961 17.5412 12.0851 17.9126 12.4842 18.2839 12.8834 18.6244 12.6515 18.6244 12.6515"/><path stroke="#CB8B73" stroke-width=".625" d="M13.9504 11.9707C13.9504 11.9707 15.0099 12.9832 16.3124 12.9832C17.6149 12.9832 18.663 12.2097 18.663 12.2097"/></g></g></svg>

<svg xmlns="http://www.w3.org/2000/svg" fill="none" viewBox="0 0 20 15"><mask id="FK_svg__a" width="20" height="15" x="0" y="0" maskUnits="userSpaceOnUse"><path fill="#fff" d="M0 0h20v15H0z"/></mask><g mask="url(#FK_svg__a)"><path fill="#2E42A5" fill-rule="evenodd" d="M0 0v15h20V0H0z" clip-rule="evenodd"/><mask id="FK_svg__b" width="20" height="15" x="0" y="0" maskUnits="userSpaceOnUse"><path fill="#fff" fill-rule="evenodd" d="M0 0v15h20V0H0z" clip-rule="evenodd"/></mask><g mask="url(#FK_svg__b)"><path fill="#2E42A5" d="M0 0h11v9H0z"/><mask id="FK_svg__c" width="11" height="9" x="0" y="0" maskUnits="userSpaceOnUse"><path fill="#fff" d="M0 0h11v9H0z"/></mask><g mask="url(#FK_svg__c)"><path fill="#F7FCFF" d="M-1.253 8.125L1.223 9.21l10.083-8.03 1.306-1.614-2.647-.363-4.113 3.46-3.31 2.332-3.795 3.129z"/><path fill="#F50100" d="M-.914 8.886l1.261.63L12.143-.583h-1.77L-.915 8.886z"/><path fill="#F7FCFF" d="M12.503 8.125L10.306 9.52-.056 1.18-1.362-.434l2.647-.363 4.113 3.46 3.31 2.332 3.795 3.129z"/><path fill="#F50100" d="M12.418 8.67l-1.261.63-5.023-4.323-1.489-.483-6.133-4.921H.283l6.13 4.804 1.628.58 4.377 3.714z"/><mask id="FK_svg__d" width="13" height="11" x="-1" y="-1" fill="#000" maskUnits="userSpaceOnUse"><path fill="#fff" d="M-1-1h13v11H-1z"/><path fill-rule="evenodd" d="M6 0H5v4H0v1h5v4h1V5h5V4H6V0z" clip-rule="evenodd"/></mask><path fill="#F50100" fill-rule="evenodd" d="M6 0H5v4H0v1h5v4h1V5h5V4H6V0z" clip-rule="evenodd"/><path fill="#F7FCFF" d="M5 0v-.938h-.938V0H5zm1 0h.938v-.938H6V0zM5 4v.938h.938V4H5zM0 4v-.938h-.938V4H0zm0 1h-.938v.938H0V5zm5 0h.938v-.938H5V5zm0 4h-.938v.938H5V9zm1 0v.938h.938V9H6zm0-4v-.938h-.938V5H6zm5 0v.938h.938V5H11zm0-1h.938v-.938H11V4zM6 4h-.938v.938H6V4zM5 .937h1V-.938H5V.938zM5.938 4V0H4.063v4h1.875zM0 4.938h5V3.063H0v1.874zM.938 5V4H-.938v1H.938zM5 4.062H0v1.875h5V4.063zM5.938 9V5H4.063v4h1.875zM6 8.062H5v1.876h1V8.062zM5.062 5v4h1.875V5H5.063zM11 4.062H6v1.875h5V4.063zM10.062 4v1h1.876V4h-1.876zM6 4.938h5V3.063H6v1.874zM5.062 0v4h1.875V0H5.063z" mask="url(#FK_svg__d)"/></g><path fill="#6DC2FF" stroke="#F7FCFF" stroke-width=".5" d="M16.219 12.227c-.628 0-1.052-.148-1.35-.394-.298-.249-.5-.624-.632-1.14-.132-.52-.186-1.158-.207-1.907a55.888 55.888 0 01-.009-1.712l.002-.554h4.453c.079 1.475.1 2.891-.184 3.953-.149.555-.375.99-.7 1.286-.32.291-.758.468-1.373.468z"/><mask id="FK_svg__e" width="6" height="7" x="13" y="6" maskUnits="userSpaceOnUse"><path fill="#fff" stroke="#fff" stroke-width=".5" d="M16.219 12.227c-.628 0-1.052-.148-1.35-.394-.298-.249-.5-.624-.632-1.14-.132-.52-.186-1.158-.207-1.907a55.888 55.888 0 01-.009-1.712l.002-.554h4.453c.079 1.475.1 2.891-.184 3.953-.149.555-.375.99-.7 1.286-.32.291-.758.468-1.373.468z"/></mask><g mask="url(#FK_svg__e)"><path fill="#E1E5E8" fill-rule="evenodd" d="M15.326 8.492s-.247-.183-.352-.478c-.106-.296-.315-1.083-.315-1.15 0-.07-.279 0-.279 0s.004-.334.11-.334c.104 0 .108-.308.363-.23.255.077.456.362.716.362.26 0 1.346.083 1.52.083.175 0 .635.369.635.644 0 .276-.125.687-.224.687s-.223.24-.41.16c-.188-.078-.637-.24-1.038-.16-.401.082-.483.03-.483.16s-.243.256-.243.256z" clip-rule="evenodd"/><path fill="#49801E" fill-rule="evenodd" d="M14.75 8.3h3.222l-.555.716H15.14l-.39-.717z" clip-rule="evenodd"/><path stroke="#fff" stroke-width=".667" d="M14.708 11.435s.557.199.79.175c.258-.027.486-.32.658-.32.172 0 .503.293.76.32.233.024.688-.175.688-.175m-3.507-.85c.192-.163.611-.175.611-.175s.557.2.79.175c.258-.027.486-.32.658-.32.172 0 .503.293.76.32.233.024.688-.175.688-.175s.254-.286.573.016"/><path fill="#fff" d="M14.038 9.706l-.421-.516c.165-.135.442-.268.847-.415l.197-.01c.42.108.7.155.803.145.034-.004.091-.031.195-.1.294-.195.322-.21.497-.21.16 0 .192.015.526.195.062.033.085.045.119.061a.54.54 0 00.148.054c.08.008.242-.03.467-.12.294-.267.665-.24.985.052.214.194.385.351.514.471l-.453.49a84.343 84.343 0 00-.51-.468c-.084-.077-.066-.077-.103-.036l-.116.081c-.35.148-.626.216-.85.193a1.103 1.103 0 01-.37-.116 3.222 3.222 0 01-.148-.076c-.16-.087-.222-.115-.21-.115.029 0-.01.022-.128.1-.19.126-.321.19-.496.207-.193.02-.494-.027-.934-.136-.286.108-.476.202-.559.27z"/></g><path stroke="#B85F3C" stroke-width=".625" d="M14.352 11.496s.615.59.244.988c-.372.4-.712.168-.712.168m4.272-1.156s-.615.59-.243.988c.37.4.711.168.711.168"/><path stroke="#CB8B73" stroke-width=".625" d="M13.95 11.97s1.06 1.013 2.362 1.013c1.303 0 2.351-.773 2.351-.773"/></g></g></svg>
